digiplan/static/images/icons/i_wind.svg

<?xml version="1.0" encoding="UTF-8"?>
<!-- Created with Inkscape (http://www.inkscape.org/) -->
<svg width="16.933mm" height="16.936mm" version="1.1" viewBox="0 0 16.933 16.936" xmlns="http://www.w3.org/2000/svg">
 <g transform="translate(-139.29 -100.92)">
  <path d="m148.28 100.92-1.0413 0.01344-0.80719 4.7444c-0.3303 0.27888-0.57391 0.65777-0.68265 1.0883l-3.7874 2.6965 0.44132 0.94361 4.2338-1.1038-0.75706 8.5473h3.7868l-0.5519-8.5297 4.1651 1.0862 0.44183-0.94361-3.9594-2.8184c-0.10301-0.32219-0.28273-0.61119-0.51729-0.84543l-0.96479-4.8788zm-0.4806 3.0272 0.2496 1.2568c-0.09068-0.01222-0.18316-0.01861-0.27698-0.01861-0.0618 0-0.12297 0.00291-0.18346 0.00827l0.21084-1.2464zm-0.02738 2.297c0.57408 0 1.0294 0.4548 1.0294 1.0289 0 0.57409-0.45531 1.0273-1.0294 1.0273s-1.0273-0.45324-1.0273-1.0273c0-0.57408 0.45325-1.0289 1.0273-1.0289zm1.9792 1.6903 1.0129 0.7214-1.203-0.31264c0.07743-0.12818 0.14152-0.26487 0.19017-0.40876zm-3.9284 0.07751c0.04857 0.12696 0.10901 0.24788 0.18035 0.36174l-1.0847 0.28215 0.90434-0.64389zm2.2319 1.3276 0.4811 7.4512h-1.5002l0.65939-7.4331c0.02551 9.4e-4 0.05126 0.00155 0.077 0.00155 0.0958 0 0.19015-0.00693 0.28267-0.01964z" color="#000000" fill-rule="evenodd" stroke-dashoffset="5.2899" style="-inkscape-stroke:none"/>
 </g>
</svg>

<?xml version="1.0" encoding="UTF-8" standalone="no"?>
<!-- Created with Inkscape (http://www.inkscape.org/) -->

<svg
   width="16.933332mm"
   height="16.935745mm"
   viewBox="0 0 16.933332 16.935745"
   version="1.1"
   id="svg474"
   xmlns="http://www.w3.org/2000/svg"
   xmlns:svg="http://www.w3.org/2000/svg">
  <defs
     id="defs471" />
  <g
     id="layer1"
     transform="translate(-139.29092,-100.91713)">
    <path
       id="path2022"
       style="color:#000000;fill:#000000;fill-rule:evenodd;stroke-dashoffset:5.28988;-inkscape-stroke:none"
       d="M 148.27746 100.91816 L 147.23618 100.9316 L 146.42899 105.67601 C 146.09869 105.95489 145.85508 106.33378 145.74634 106.76432 L 141.95898 109.46079 L 142.4003 110.4044 L 146.63415 109.30059 L 145.87709 117.84788 L 149.66393 117.84788 L 149.11203 109.31816 L 153.27715 110.4044 L 153.71898 109.46079 L 149.75954 106.64236 C 149.65653 106.32017 149.47681 106.03117 149.24225 105.79693 L 148.27746 100.91816 z M 147.79686 103.94537 L 148.04646 105.20214 C 147.95578 105.18992 147.8633 105.18353 147.76948 105.18353 C 147.70768 105.18353 147.64651 105.18644 147.58602 105.1918 L 147.79686 103.94537 z M 147.76948 106.24238 C 148.34356 106.24238 148.79887 106.69718 148.79887 107.27126 C 148.79887 107.84535 148.34356 108.29859 147.76948 108.29859 C 147.1954 108.29859 146.74215 107.84535 146.74215 107.27126 C 146.74215 106.69718 147.1954 106.24238 147.76948 106.24238 z M 149.74868 107.93272 L 150.76154 108.65412 L 149.55851 108.34148 C 149.63594 108.2133 149.70003 108.07661 149.74868 107.93272 z M 145.82024 108.01023 C 145.86881 108.13719 145.92925 108.25811 146.00059 108.37197 L 144.9159 108.65412 L 145.82024 108.01023 z M 148.05215 109.3378 L 148.53325 116.78903 L 147.03309 116.78903 L 147.69248 109.35589 C 147.71799 109.35683 147.74374 109.35744 147.76948 109.35744 C 147.86528 109.35744 147.95963 109.35051 148.05215 109.3378 z " />
  </g>
</svg>
